img/facebook.svg

<svg width="14" height="14" viewBox="0 0 14 14" fill="none" xmlns="http://www.w3.org/2000/svg">
<path d="M10.5 1.16663H8.75C7.97645 1.16663 7.23458 1.47392 6.6876 2.0209C6.14062 2.56788 5.83333 3.30974 5.83333 4.08329V5.83329H4.08333V8.16663H5.83333V12.8333H8.16666V8.16663H9.91666L10.5 5.83329H8.16666V4.08329C8.16666 3.92858 8.22812 3.78021 8.33752 3.67081C8.44691 3.56142 8.59529 3.49996 8.75 3.49996H10.5V1.16663Z" fill="#101010"/>
</svg>

<svg width="14" height="14" fill="none" xmlns="http://www.w3.org/2000/svg"><path d="M10.5 1.167H8.75a2.917 2.917 0 00-2.917 2.916v1.75h-1.75v2.334h1.75v4.666h2.334V8.167h1.75l.583-2.334H8.167v-1.75A.583.583 0 018.75 3.5h1.75V1.167z" fill="#101010"/></svg>
